X: 360
T: The Windy Height
M:6/8
L:1/8
B:O'Neill's 360
N:"With spirit."
N:"collected by J. O'Neill."
Z:Transcribed by Chris Falt, cfalt@trytel.com
K:D
A|d2d def|e2d c2A|B2B BAF|A2A ABc|
d2d def|e2d cBA|(B<e)d cBc|d3 d2||
B|A2G FEF|A2A A2g|f2d edB|d2d d2B|
A2G FEF|A2A A2A|(B<e)d cBc|d3 d2||


